X: 1428
T: Nazlı Nazlı Sekip Gider
C: Dede Efendi
O: Turkey
F: http://compmusic.upf.edu/node/140
N: gulizar--kocekce--aksak--nazli_nazli--dede_efendi
N: makam= gulizar
N: form= kocekce
N: usul= aksak = 9/8
M: 9/8
L: 1/16
K: C _2/4B ^3/4f  
Q: 1/4=192
%%MIDI tuningsystem comma53
z4 a4 g2f2 c'2b2 a2 | e2 e4 d2^c2 d2e2 f2g2  | \
w:  Naz lı  *  naz *  lı   |  se kip  *  gi der   ah    | 
a2z2 a4 g2f2 c'2b2 a2 | 
w:  *  Naz lı  *  naz *  lı   | 
e2 e4 d2^c2 d2g4fe  | e2z2 ^c2d2 e2f2 g2a4 | \
w:  se kip  *  gi der   ah   |  *  O  gü zel  *  cey  | 
e4e3d^c2 d2g4fe  | 
w:  lân  *  *  cey *  lân   | 
e3d ^c2d2 e2f2 g2a4 | e4e3d^c2 d2g4fe  | \
w:  *  *  o  şi rin  *  cey  |  lân  *  *  cey *  lân    | 
e2z2 a2e2 e2z2 e2e3d | 
w:  *  Dö *  nüp  dö nüp   | 
d2 d4 c2d2 d2d2 _7/8edcB  | c2z2 B2c2 d4 d2_7/8ed c2 | \
w:  ba kar  *  gi der   ah   |  *  Ne  gü zel  cey  | 
d4d4d4d2 _7/8edcB  | 
w:  lân   | 
c2z2 g2g2 g4 gf_7/8ed c2 | g2 g4 g2g4g2 gf_7/8e2  | \
w:  *  ne  şi rin  cey  |  lân  *  *  *  me ded   | 
_7/8e4 e4 e3d gfed cB | 
w:  *  *  *  *  ey   | 
c12z4z2  | c3a g2=f2 e2d2 c2d2 e2 | =f3ag2 f2e2 f2g6  | \
w:  ey    |  SAZ  |   | 
c3a g2=f2 e2d2 c2d2 e2 | 
w:   | 
=f3ag2 f2e3dc6  | g2z2 g4 g8-g2 | _7/8a3ga2 b2g3f_1/4e6  | \
w:   |  *  Dağ lar   |  ba *  *  *  na   | 
z4 _1/4e2=f2 g2_7/8a2 g4 f2 | 
w:  dağ *  lar   | 
g4g2 _7/8a2ag =f_1/4ef4z2  | z4 =f2_1/4e2 _7/8e2d2 d4 _1/4e2 | \
w:  ba na  *  vay    |  Bah *  çe   | 
=f4g2 f2_1/4e3dd4z2  | 
w:  sa *  *  na   | 
z4 d2_1/4e2 =f2g2 a2g2 f2 | _1/4e6 g2gf _7/8e2e6  | \
w:  dağ *  lar   |  ba na  hey   | 
_7/8e4 e4 e2d2 gfed cB | 
w:  *  *  *  *  hey   | 
c16z2  | c3a g2=f2 e2d2 c2d2 e2 | =f3ag2 f2e2 f2g6  | \
w:  hey    |  SAZ  |   | 
c3a g2=f2 e2d2 c2d2 e2 | 
w:   | 
=f3ag2 f2e3dc6  | g2z2 g4 g8-g2 | _7/8a3ga2 b2g3f_1/4e6  | \
w:   |  *  Dağ lar   |  ba *  *  *  na   | 
z4 _1/4e2=f2 g2_7/8a2 g4 f2 | 
w:  dağ *  lar   | 
g4g2 _7/8a2ag =f_1/4ef4z2  | z4 =f2_1/4e2 _7/8e2d2 d4 _1/4e2 | \
w:  ba na  *  vay    |  Bah *  çe   | 
=f4g2 f2_1/4e3dd4z2  | 
w:  sa *  *  na   | 
z4 d2_1/4e2 =f2g2 a2g2 f2 | _1/4e6 g2gf _7/8e2e6  | \
w:  dağ *  lar   |  ba na  hey   | 
_7/8e4 e4 e2d2 gfed cB | 
w:  *  *  *  *  hey   | 
c16z2  | c3a g2=f2 e2d2 c2d2 e2 | =f3ag2 f2e2 f2g6  | \
w:  hey    |  SAZ  |   | 
c3a g2=f2 e2d2 c2d2 e2 | 
w:   | 
=f3ag2 f2e3dc6  | g4 a4 a2c'2 b2a2 g2 | \
w:   |  Al dan maz   | 
=f3ee2 d2ed cBA6  | 
w:  av *  lan *  maz   | 
z4 d2e2 e2a2 e4 d2 | d4e2 edd4de dcBA  | \
w:  ser keş_ ol *  muş   |  *  a va  *  gel mez    | 
G4 B2c2 d4 d2_7/8ed c2 | 
w:  *  O  şi rin  cey  | 
d12gf _7/8edcB  | c3B e2dc c2B2 dcB2 BA | \
w:  lân   |  *  *  o  gü *  zel  *  cey  | 
A12z4z2  | 
w:  lân    | 
|


